build/documents/AccountDetailOutline.svg

<svg xmlns="http://www.w3.org/2000/svg" fill="none" viewBox="0 0 24 24" focusable="false"><path d="M0 0H24V24H0z"/><path fill="#74767B" fill-rule="evenodd" d="M7 3C5.34315 3 4 4.34315 4 6L4 18C4 19.6569 5.34315 21 7 21L17 21C18.6569 21 20 19.6569 20 18L20 9.2997C20 8.47047 19.6568 7.67823 19.0518 7.11108L15.5321 3.81139C14.9761 3.2901 14.2425 3 13.4803 3L7 3ZM13.4803 4.3L7 4.3C6.06112 4.3 5.3 5.06112 5.3 6L5.3 18C5.3 18.9389 6.06112 19.7 7 19.7L17 19.7C17.9389 19.7 18.7 18.9389 18.7 18L18.7 9.2997C18.7 9.19933 18.6911 9.09993 18.6738 9.00251L15.9996 9.00252C14.9226 9.00253 14.0496 8.12948 14.0496 7.05252L14.0496 4.39813C13.8684 4.33375 13.676 4.3 13.4803 4.3ZM15.3496 5.42216L17.7819 7.70252L15.9996 7.70252C15.6406 7.70252 15.3496 7.41151 15.3496 7.05252L15.3496 5.42216ZM12.125 8.46613C12.125 8.05191 11.7892 7.71613 11.375 7.71613C10.9608 7.71613 10.625 8.05191 10.625 8.46613C10.625 8.88034 10.9608 9.21613 11.375 9.21613C11.7892 9.21613 12.125 8.88034 12.125 8.46613ZM12.025 11.2199C12.025 10.8609 11.734 10.5699 11.375 10.5699C11.016 10.5699 10.725 10.8609 10.725 11.2199L10.725 15.0661C10.725 16.1431 11.598 17.0161 12.6749 17.0161L12.725 17.0161C13.084 17.0162 13.375 16.7252 13.375 16.3662C13.375 16.0072 13.084 15.7162 12.725 15.7162L12.675 15.7161C12.316 15.7161 12.025 15.4251 12.025 15.0661L12.025 11.2199Z"/></svg>

<svg xmlns="http://www.w3.org/2000/svg" fill="none" viewBox="0 0 24 24" focusable="false"><path fill="#74767B" fill-rule="evenodd" d="M7 3C5.34 3 4 4.34 4 6v12c0 1.65 1.34 3 3 3h10c1.65 0 3-1.35 3-3V9.29c0-.82-.35-1.62-.95-2.18l-3.52-3.3c-.56-.52-1.29-.81-2.05-.81zm6.48 1.29H7c-.94 0-1.7.77-1.7 1.71v12c0 .93.76 1.7 1.7 1.7h10c.93 0 1.7-.77 1.7-1.7V9.29c0-.1-.01-.2-.03-.29h-2.68c-1.07 0-1.95-.88-1.95-1.95V4.39c-.18-.06-.37-.1-.56-.1m1.86 1.13 2.44 2.28h-1.79c-.35 0-.65-.29-.65-.65zm-3.22 3.04c0-.41-.34-.75-.75-.75s-.75.34-.75.75a.749.749 0 1 0 1.5 0m-.1 2.75c0-.35-.29-.65-.65-.65s-.65.3-.65.65v3.85c0 1.08.87 1.95 1.95 1.95h.05c.36 0 .65-.29.65-.65s-.29-.65-.65-.65h-.05c-.36 0-.65-.29-.65-.65z"/></svg>
